X: 1
T: Sporting Paddy
M: 4/4
L: 1/8
K: Gmaj
|: EAAB GABG | EAAB G2ED | EAA2 GABd | edge dBAG |
EAAB GABG | EAAB G2ED | EAA2 GABd | edge d2ef ||
ge~e2 gede|ge~e2 a2ga|bgaf gedg|efge dBAG |
g2fg edBd|ge~e2 a2ga|bgaf gfed|efge dBAG:| 
 
